X: 325
T: Wild Shoat
B: canberra pickers and fiddlers
B: tunes
M:C|
L:1/8
R: reel
Q: 1/4=100
K:G
V:1 
ef|g2ge a2ga|bgba gede|g2ge a2ga|bage d2ef|
g2ge a2ga|bgba gede|gfge a2ga|bage d2||
ef|gedA- BAGF|[M:3/2] EDEG E2 EG E2 Ed |[M:C|] B2 -A2 GBAG |EDEF G2ed
B2A2 GBAG|[M:3/2] EDEG E2EG E2ed|[M:C|]B2-A2 GBAG| EDEF G2||
% abcbook-tune_id 63da59340c1de96322511e78
% abcbook-tune_composer_id 
% abcbook-link-0 https://www.youtube.com/watch?v=Mx8AsJbuNak
% abcbook-boost 0
% abcbook-difficulty 0
% abcbook-tags canberra pickers and fiddlers,old time tunes,© free
% abcbook-tablature 
% abcbook-transpose 
% abcbook-tuning GDAD
% abcbook-lastupdated 1675254068533
% abcbook-src-url https://tunebook.net/scrape/tunes.abc
% abcbook-soundfonts 
% abcbook-repeats 1
%%gchordfont "itim-music,Itim" 20

